X:459
%%etbk:tnset id:144,pos:1,rep:3x,ant:
%%etbk:wsite http://abcnotation.com/tunePage?a=www.oldmusicproject.com/AA2ABC/Abc-0101-200/170-WildGeese/0000
%%etbk:pldat 2016-01-27T16:56,2015-12-31T15:47,2015-12-29T17:13,2015-12-24T16:41,2015-12-23T18:14,2015-12-16T16:17,2015-12-15T16:34
T: Wild Geese, The
S: Noel Hill
Z: Piano Box Version by Martin Fleischmann
H: Created 2013-02-19 /  Last Modified 2013-02-19
M: 3/4
L: 1/8
R: slow air
K: Gmaj
G>A/2 | "G"!3!B>{c}B/2A/2 !tenuto!!1!G2 G/2A/2B3/2 | "D"!2!A>{B}/2A/2!1!G/2 !tenuto!!2!E3 !1!D | !2!E<!4!G "G"!3!G3!1!G | G6 |
"C"!4!c2!tenuto!c2 -c/2{d}c/2B/2A/2 | "G"!3!B2!tenuto!B2- B/2{c}B/2A/2G/2 | "D"!2!A2 !tenuto!!5!e2 !4!d>{e}d/2!3!B/2 | !2!A6  |
"C"!4!c2!tenuto!c2 -c/2{d}c/2B/2A/2 | "G"!3!B2!tenuto!B2- B/2{c}B/2A/2G/2  | "D"!2!A>B  c>B !2!A>{B}A/2!1!G/2 | "C"!2!E4 !1!G<A |
"G"!3!B>{c}B/2A/2 !tenuto!!1!G2 G/2A/2B3/2 | "D"!2!A>{B}/2A/2!1!G/2 !tenuto!!2!E3 D | !2!E<!4!G "G"!3!G3!1!G | G4 -G>A |
"G"!3!B>A !tenuto!G>A B>G | "D"!2!A>{c}A/2!1!G/2 !tenuto!!2!E>!4!G A>E | "C"!4!G>{A}G/2E/2 !tenuto!D>E G>A | "G"!4!G>!3!G !1!G4 |
"C"!4!c>B !tenuto!A>B c>d | "G"!3!B>A !tenuto!G>A B>G | "D"!2!A2!tenuto!!5!e2 !4!d>{e}d/2!3!B/2 | !2!A6 |
"C"!4!c>B !tenuto!A>B c>d | "G"!3!B>{c}B/2A/2 !tenuto!G>A B>G | "D"{c}!2!A/2G/2A/2B/2 .!5!d>  B !2!A/2{c}A/2!1!G | "C"!2!E2-!1!E>!5!e !4!d>{e}d/2!2!B/2 | 
"G"!1!G>G !tenuto!G>!5!e !4!d>{e}d/2!2!B/2 | "G"!1!G>G !tenuto!G>!5!e !4!d>{e}d/2!2!B/2  | "C"!3!c>c !tenuto!c>!5!e !4!d>{e}d/2!2!B/2  | !3!c>c !tenuto!c>!4!e !4!d>{e}d/2!3!c/2 | 
"G"!2!B>B !tenuto!B>!5!e !4!d>{e}d/2!1!A/2 | !2!B>B !tenuto!B>!5!e !4!d>{e}d/2!2!B/2 | "D"!1!A>A !tenuto!A>!5!e !4!d>{e}d/2!2!B/2 | !1!A>A !tenuto!A>!5!e/2d/2 e/2d/2c/2!2!B/2 | 
"C"!3!c>c !tenuto!c>!5!e !4!d>{e}d/2!3!c/2 | "G"!2!B>B !tenuto!B>!5!e !4!d>{e}d/2!3!B/2 | "D"!2!A>B  !4!c>B !2!A>{B}A/2!1!G/2 | "C"!2!E4 !1!G<A |
"G"!3!B>A G>A B>G | "D"!2!A>{c}A/2!1!G/2 !tenuto!!2!E>!4!G A>E | "C"!4!G>{A}G/2E/2 !tenuto!D>E G>A | "G"!4!G>!3!G !1!G4  ||


